X:1
T:Suite I
T:SUITE I.
%%score ( 1 2 3 4 )
L:1/8
Q:1/4=80
M:4/4
K:G
V:1 bass nm="Violoncello" snm="Vc."
V:2 bass 
V:3 bass 
V:4 bass 
V:1
"^Prélude." (G,,/D,/B,/)A,/ B,/D,/B,/D,/ (G,,/D,/B,/)A,/ B,/D,/B,/D,/ | %1
 (G,,/E,/C/)B,/ C/E,/C/E,/ (G,,/E,/C/)B,/ C/E,/C/E,/ | %2
 (G,,/F,/C/)B,/ C/F,/C/F,/ (G,,/F,/C/)B,/ C/F,/C/F,/ | %3
 (G,,/G,/B,/)A,/ B,/G,/B,/G,/ (G,,/G,/B,/)A,/ B,/G,/B,/F,/ | %4
 (G,,/E,/B,/)A,/ B,/G,/F,/G,/ (E,/G,/F,/)G,/ B,,/D,/^C,/B,,/ | %5
 (^C,/G,/A,/)G,/ A,/G,/A,/G,/ (C,/G,/A,/)G,/ A,/G,/A,/G,/ | %6
 (F,/A,/D/)^C/ D/A,/G,/A,/ F,/A,/G,/A,/ D,/F,/E,/D,/ | %7
 (E,,/B,,/G,/)F,/ G,/B,,/G,/B,,/ (E,,/B,,/G,/)F,/ G,/B,,/G,/B,,/ | %8
 E,,/^C,/D,/E,/ D,/C,/B,,/A,,/ (G,/F,/E,/)D/ ^C/B,/A,/G,/ | %9
 (F,/E,/D,/)D/ A,/D/F,/A,/ (D,/E,/F,/)A,/ G,/F,/E,/D,/ | %10
 ^G,/(D,/=F,/E,/) F,/D,/G,/D,/ B,/(D,/=F,/E,/) F,/D,/^G,/D,/ | %11
 (C,/E,/A,/)B,/ C/A,/E,/D,/ (C,/E,/A,/)B,/ C/A,/F,/E,/ | %12
 (^D,/F,/D,/)F,/ A,/F,/A,/F,/ (D,/F,/D,/)F,/ A,/F,/A,/F,/ | %13
 (G,/F,/E,/)G,/ F,/G,/A,/F,/ G,/F,/E,/D,/ C,/B,,/A,,/G,,/ | %14
 (F,,/C,/D,/)C,/ D,/C,/D,/C,/ (F,,/C,/D,/)C,/ D,/C,/D,/C,/ | %15
 (G,,/B,,/=F,/)E,/ F,/B,,/F,/B,,/ (G,,/B,,/=F,/)E,/ F,/B,,/F,/B,,/ | %16
 (G,,/C,/E,/)D,/ E,/C,/E,/C,/ (G,,/C,/E,/)D,/ E,/C,/E,/C,/ | %17
 (G,,/F,/C/)B,/ C/F,/C/F,/ (G,,/F,/C/)B,/ C/F,/C/F,/ | %18
 (G,,/D,/B,/)A,/ B,/G,/F,/E,/ D,/C,/B,,/A,,/ G,,/F,,/E,,/D,,/ | %19
 (^C,,/A,,/E,/)F,/ G,/E,/F,/G,/ (C,,/A,,/E,/)F,/ G,/E,/F,/G,/ | %20
 (=C,,/A,,/D,/)E,/ F,/D,/E,/F,/ (C,,/A,,/D,/)E,/ F,/D,/E,/F,/ | %21
 (C,,/A,,/D,/)F,/ (A,/^C/!fermata!D-) D/A,,/B,,/=C,/ D,/E,/F,/G,/ | %22
 A,/F,/D,/E,/ F,/G,/A,/B,/ C/A,/F,/G,/ A,/B,/C/D/ | %23
 (_E/D/^C/D/) (D/=C/B,/C/) C/A,/F,/=E,/ D,/A,,/B,,/C,/ | %24
 (D,,/A,,/D,/)F,/ A,/B,/C/A,/ (B,/G,/D,/)C,/ B,,/G,,/A,,/B,,/ | %25
 (D,,/G,,/B,,/)D,/ G,/A,/B,/G,/ (^C/_B,/A,/B,/) (B,/A,/^G,/A,/) | %26
 (A,/=G,/F,/)G,/ G,/E,/^C,/B,,/ (A,,/C,/E,/)G,/ A,/^C/D/C/ | %27
 (D/A,/F,/)E,/ F,/A,/D,/F,/ A,,/D,/^C,/B,,/ A,,/G,,/F,,/E,,/ | %28
 D,,(=C/B,/ A,/G,/F,/E,/) D,/(C/B,/A,/ G,/F,/E,/D,/) | %29
 C,/(B,/A,/G,/ F,/E,/D,/C,/) B,,/(A,/G,/F,/ E,/D,/C,/B,,/) | %30
 A,,/(G,/F,/E,/) F,/A,/D,/A,/ E,/A,/F,/A,/ G,/A,/E,/A,/ | %31
 F,/A,/D,/A,/ G,/A,/E,/A,/ F,/A,/D,/A,/ G,/A,/E,/A,/ | %32
 F,/A,/D,/A,/ E,/A,/F,/A,/ G,/x/A,/ x/ B,/x/D,/ x/ | %33
 A,/A,/B,/ x/ C/A,/D,/ x/ B,/A,/C/ x/ D/A,/B,/ x/ | %34
 C/A,/B,/ x/ C/A,/A,/ x/ B,/A,/A,/ x/ B,/A,/G,/ x/ | %35
 A,/A,/G,/ x/ A,/A,/F,/ x/ G,/A,/F,/A,/ G,/A,/E,/A,/ | %36
 F,/A,/D,/E,/ =F,/D,/^F,/D,/ G,/D,/^G,/D,/ A,/D,/_B,/D,/ | %37
 =B,/D,/C/D,/ ^C/D,/D/D,/ ^D/D,/=E/D,/ =F/D,/^F/D,/ | %38
 (G/B,/D,/)B,/ G/B,/G/B,/ (G/B,/D,/)B,/ G/B,/G/B,/ | %39
 (G/A,/D,/)A,/ G/A,/G/A,/ (G/A,/D,/)A,/ G/A,/G/A,/ | (F/C/D,/)C/ F/C/F/C/ (F/C/D,/)C/ F/C/F/C/ | %41
 !fermata![G,,B,G]8 |][K:G][M:4/4]"^Allemande." B,/ | %43
[Q:1/4=66] B,2- B,/(A,/G,/F,/) (G,/D,/E,/F,/) (G,/A,/B,/C/) | %44
 (D/B,/G,/F,/) (G,/E,/D,/C,/) (B,,/C,/D,/E,/) (F,/G,/A,/B,/) | %45
 (C/A,/G,/F,/) G,/E,/F,/G,/ (A,,/D,/F,/G,/) A,/B,/C/A,/ | %46
 (B,/G,/)(G,/D,/) (D,/B,,/)(B,,/G,,/) G,,>B, C/B,/A,/G,/ | %47
 (A,/B,/C/)A,/ (G,/F,/G,/)A,/"^(    )" T^D,>C (B,/A,/)(G,/F,/) | %48
 (G,/E,/)(E,/B,,/) (B,,/G,,/)(G,,/E,,/) E,,>B,, E,/G,/F,/A,/ | %49
 (G,/F,/E,/)F,/ G,/^C/(G,/F,/ G,/)C/(E,/F,/ G,/)E,/A,,/G,/ | %50
"^(    )" MF,D,/E,/ F,/D,/G,/E,/ F,/D,/F,/G,/ A,/B,/=C/A,/ | %51
 (B,/D,/G,,/)D,/ B,/G,/A,/F,/ G,/E,/G,/A,/ B,/^C/D/B,/ | %52
 (^C/E,/G,,/)E,/ C/A,/B,/D/ C/A,/D/B,/ C/A,/E/G,/ | %53
 TF,>D (A,/G,/)(F,/E,/) D,/A,/G,/E,/ F,/D,/A,/=C,/ | %54
 TB,,>G, (D,/C,/)(B,,/A,,/) G,,/D,/C,/A,,/ B,,/G,,/D,/F,,/ | %55
 (E,,/G,,/A,,/B,,/ ^C,/D,/E,/F,/ G,/A,/^C/D/ E/A,/)G | D,/G/F/E/ F/D/A,/D/ (D,/F,/A,/)=C/ TB,>A, | %57
 B,>A, (G,/F,/E,/)D/ ^C/E/A,/G,/ F,/D,/A,,/^C,/ | D,,>A,, D,/F,/A,/^C/ D/A,/F,/D,/ D,,3/2 :: A,/ | %60
 A,2- A,/F,/G,/A,/ (D,/E,/F,/)G,/ A,/F,/D,/C,/ | %61
 (B,,/D,/G,/)F,/ G,/A,/B,/C/ D/B,/A,/G,/ (=F,/E,/F,/)D/ | %62
 TE,{D,}C, C/A,,/B,,/C,/ D,,/C/B,/C/ D/B,/C/A,/ | %63
 T^G,E, B,/D,/C,/B,,/ C,/E,/F,/^G,/ A,/(C/B,/A,/) | %64
 D(B,,/C,/) (D,/E,/=F,/)A,,/ T^G,,>E, B,/D/C/B,/ | C>B, A,/=G,/=F,/E,/ F,/D,/_B,/A,/ (B,/C/D/)A,/ | %66
 (^G,/A,/=B,/)E,/ =F,/(D,/C,/B,,/) C,/E,/A,/B,/"^(    )" TB,>A, | %67
 A,>B, C/B,/C/G,/ (F,/G,/A,/)E,/ D,/C,/B,,/A,,/ | (G,,/D,/F,/)C/ B,/A,/G,/A,/ B,/C/D/E/ D/E/=F/D/ | %69
 EG, C,/D/C/B,/ (A,/B,/C/)E/ D>C | DA, B,,/(C/B,/A,/) (G,/F,/E,/)G,/ B,/D/C/B,/ | %71
 CG, A,,/(E,/F,/G,/) F,/(A,/B,/C/) D,/C,/B,,/A,,/ | %72
 G,,/(D,/F,/A,/) C/A,/F,/D,/ G,,>D, E,/G,/A,/^C/ | %73
 D/(A,/F,/E,/) D,/=F,/G,/B,/ =C/(G,/E,/D,/) C,/E,/A,/C/ | %74
 (F,/A,/C/)E/ D>C, B,,/G,/A,,/G,,/ D,,/A,,/G,/F,/ | G,/G,,/B,,/D,/ G,/B,/D/F/ G/D/B,/G,/ G,,3/2 :| %76
[K:G][M:3/4]"^Courante." G, |[Q:1/4=80] G,D, G,,(B,/C/ D/C/B,/A,/) | B,D, G,,(G,/A,/ B,)G, | %79
 E,C, C,,(A,/B,/ C/B,/A,/G,/) | F,D, D,,(D,/E,/ F,/G,/A,/B,/) | %81
 (C/B,/C/)A,/ (C/B,/C/)A,/ D,/C/B,/A,/ | (B,/A,/B,/)G,/ (B,/A,/B,/)G,/ C,/B,/A,/G,/ | %83
 (F,/A,/D/)D,/ G,B,, D,,F, | G,3 (B,/A,/ G,/F,/E,/D,/) | E^C A,(B,/C/) D/(F,/E,/D,/) | %86
 A,,D T^C(B,/A,/) D/A,/B,/F,/ | (G,/F,/G,/)E,/ (G,/F,/G,/)E,/ A,,/G,/F,/E,/ | %88
 (F,/E,/F,/)D,/ (F,/E,/F,/)D,/ G,,/F,/E,/D,/ | (D/^C/B,/A,/) D(C/B,/) A,/G,/F,/E,/ | %90
 (D,/E,/D,/)F,/ (D,/E,/D,/)G,/ (D,/E,/D,/)A,/ | (D,/E,/D,/)B,/ (D,/E,/D,/)^C/ (D,/E,/D,/)D/ | %92
 (G,/F,/E,/D,/ ^C,/B,,/A,,/)G,/ TF,>E, | (A,/G,/B,/A,/ G,/F,/E,/D,/) A,,^C, | D,,4 z :: A, | %96
 A,F, D,(E,/F,/ G,/F,/E,/D,/) | DF, C,(B,,/C,/ D,/C,/B,,/A,,/) | B,,/(G,/A,/B,/ C/B,/A,/G,/) F,D | %99
 B,G, G,,(B,/A,/ C/B,/A,/G,/) | A,F, ^D,/(A,/B,/C/ B,/A,/G,/F,/) | G,E, E,,(G,/F,/ A,/G,/F,/E,/) | %102
 (=F,/E,/F,/)A,/ (F,/E,/F,/)A,/ C/B,/C/A,/ | ^D2- D/(=C/B,/A,/) (G,/F,/)(A,/^D,/) | %104
 G,,B, (A,/G,/)(F,/E,/) B,,^D, | E,,3 (E,/F,/ G,/A,/B,/C/) | D=F, B,,(E,/=F,/ G,/F,/E,/D,/) | %107
 E,C, C,,(C,/D,/ E,/^F,/G,/E,/) | (^C,/G,/A,/)G,/ A,/G,/C,/G,/ C,/G,/A,/G,/ | %109
 (=C,/F,/A,/)F,/ A,/F,/C,/F,/ C,/F,/A,/F,/ | B,,/(D,/E,/=F,/) G,,/(=F,/E,/D,/) E,/(D/C/B,/) | %111
 ^F,/(A,/B,/C/) D,/(C/B,/A,/) B,G,, | C,,(B,/A,/ C/B,/A,/G,/) D,F, | %113
 (G,,/A,,/G,,/)B,,/ (G,,/A,,/G,,/)C,/ (G,,/A,,/G,,/)D,/ | %114
 (G,,/A,,/G,,/)E,/ (G,,/A,,/G,,/)F,/ (G,,/A,,/G,,/)G,/ | (C/B,/A,/G,/ F,/E,/D,/)C/ TB,>A, | %116
 (D/C/D/)B,/ (D/C/D/)B,/ E,/D/C/B,/ | (C/B,/C/)A,/ (C/B,/C/)A,/ D,/C/B,/A,/ | %118
 B,/A,/B,/G,/ C,/B,/A,/G,/ D,F, | G,4 z :|[K:G][M:3/4][Q:1/4=44]"^Sarabande." B,2 (C3 B,) | %121
 (F,/A,/B,/)C/ TB,2 (A,G,) | D=F, (E,3/2(3D,/4C,/4B,,/4 C,)E, | ^F,/(C/B,/G,/) TF,2 (E,D,) | %124
 A,/(F,/D,/C,/) B,,>G,, (B,,/D,/G,/A,/) | B,/(G,/E,/D,/) T^C,3/2(A,,/4B,,/4 C,/D,/E,/F,/) | %126
 G,/(^C/D/C/) D/A,/G,/F,/ (E,/G,/)(F,/D,/) | (A,,/D,/E,/)^C,/ D,2 D,,2 :: F,E,/D,/ C3 B,/A,/ | %129
 B,/(F,/G,/E,/) T^D,>E, F,/G,/A,/B,/ | ^D,/(A,/B,/C/) TB,(A,/G,/) (F,/E,/)(A,/F,/) | %131
 (G,/E,/)(F,/^D,/) E,2 E,,2 | =D,3/2(E,/4=F,/4) E,>^F, (G,/A,/B,/C/) | %133
 ^G,,/(D/C/B,/) C>B, A,/=G,/F,/E,/ | D,2- D,/E,/F,/G,/ (A,/C/)(B,/G,/) | (D,/G,/A,/)F,/ G,2 G,,2 :| %136
[K:G][M:3/4]S[Q:1/4=98]"^Menuet I." (G,,D, B,2) (A,B,/C/) | (B,A,)(G,F,)(G,D,) | (E,G,)(CA,)(F,D) | %139
 TB,4 A,2 | (A,,F, C2) (B,C/D/) | (CB,)(A,G,)(F,E,) | (F,G,/A,/) G,F,E,F, | D,2 A,,2 D,,2 :: %144
 (D,F, A,2) (G,A,/B,/) | (A,G,)(F,E,)(D,F,) | B,,(D,^G,A,)B,D | A,,(DCB,) C2 | (^D,F,A,)CB,A, | %149
 (B,E,G,,)A,CB, | (A,G,F,)E,B,,^D, | E,,3 E,=D,C, | (B,,D, G,2) (D,E,/=F,/) | (=F,D,)(E,C,)C,,B,, | %154
 (^C,E, A,2) (E,F,/G,/) | (G,E,)(F,D,)D,,A,, | (D,F,A,)CB,D | (E,G,B,)DCE | DF,G,B,,D,,F, | %159
 G,6!dacoda! ::[K:F][M:3/4]"^Menuet II."[Q:1/4=90] (B,A,B,)D,_E,G,, | F,,2 A,2 D,2 | %162
 (G,^F,G,)B,,C,_E,, | (D,,A,,D,)G,^F,A, | (B,A,B,)D,_E,G,, | F,,2 A,2 D,2 | (G,^F,G,)B,,C,=E,, | %167
 (D,,G,) ^F,4 :: (D,^F,A,)C_ED | (CB,A,B,) G,2 | (C,=E,G,)B,DC | (B,A,G,A,)F,_E, | D,F,(B,A,B,)D, | %173
 _E,G,(B,A,B,)D | C_EDB,F,A, | B,F,D,F, B,,2 | (=B,,D,F,)_A,G,F, | (_E,G,CD) _E2 | %178
 (A,,C,_E,)G,F,E, | (D,F,B,C) D2 | (^F,,A,,C,)_E,D,C, | B,,D,(G,A,B,)G, | C,(B,A,G,)D,^F, | %183
 G,,6!D.C.! :|[K:G][M:6/8]O[Q:3/8=96]"^Gigue." D, | G,(D,E,) E,(C,D,) | .D,.G,.D, B,,G,,D, | %187
 (G,/A,/B,)A, (A,/B,/C)B, | (TB,3 A,2) A, | B,(F,G,) G,(E,G,) | A,(E,F,) F,(D,F,) | %191
 .G,.B,.G, E,B,,D, | (^C,E,A,) A,,2 E, | (=F,E,)G, (G,F,)A, | (A,G,)_B, (B,A,)G, | %195
 (=F,E,)D, (A,,D,)^C, | D,A,,^F,, D,,2 :: A, | (A,F,G,) (G,E,F,) | (F,/G,/A,)F, D,(CB,) | %200
 (B,G,A,) (A,F,G,) | (G,/A,/B,)G, E,(DC) | A,(DC) D,(CB,) | G,(CB,) C,(B,A,) | %204
 (G,F,)E, (B,,E,)^D, | E,B,,G,, E,,2 G, | A,(F,G,) (^C/D/E)F, | G,(E,=F,) (B,/C/D)E, | %208
 =F,(D,E,) (A,/B,/C)A, | (^F,/G,/A,)F, D,2 A, | (_B,A,C) (CB,D) | (DC_E) (EDC) | %212
 _B,(A,G,) (D,G,)F, | G,(=B,,/C,/D,) (G,,B,,)D, | G,(E,/=F,/G,) (B,,C,)E, | %215
 A,(^F,/G,/A,) (^C,D,)F, | B,(G,/A,/B,) (^D,E,)C | (E,F,)D (F,G,)E | (D,E,/F,/G,/A,/) (B,G,)F, | %219
 G,D,B,, G,,2 :| %220
V:2
 x8 | x8 | x8 | x8 | x8 | x8 | x8 | x8 | x8 | x8 | x8 | x8 | x8 | x8 | x8 | x8 | x8 | x8 | x8 | %19
 x8 | x8 | x8 | x8 | x8 | x8 | x8 | x8 | x8 | x8 | x8 | x8 | x8 | x9/2 A,/x/A,/ x/ A,/x/A,/ | %33
 x/ A,/B,/A,/ x/ A,/D,/A,/ x/ A,/C/A,/ x/ A,/B,/A,/ | %34
 x/ A,/B,/A,/ x/ A,/A,/A,/ x/ A,/A,/A,/ x/ A,/G,/A,/ | x/ A,/G,/A,/ x/ A,/F,/A,/ x4 | x8 | x8 | %38
 x8 | x8 | x8 | x8 |][K:G][M:4/4] x/ | G,,2 x6 | x8 | x8 | x8 | x8 | x8 | x8 | x8 | x8 | x8 | x8 | %54
 x8 | x8 | x8 | G,,3/2 x13/2 | x15/2 :: x/ | D,2- D,/ x11/2 | x8 | x8 | x8 | x8 | A,,3/2 x13/2 | %66
 x6 E,2 | A,,3/2 x13/2 | x8 | x8 | x8 | x8 | x4 B,3/2 x5/2 | x8 | x8 | x15/2 :|[K:G][M:3/4] x | %77
 x6 | x6 | x6 | x6 | x6 | x6 | x6 | G,,3 x3 | x6 | x6 | x6 | x6 | x6 | x6 | x6 | x6 | x6 | x5 :: %95
 x | x6 | x6 | x6 | x6 | x6 | x6 | x6 | x6 | x6 | x6 | x6 | x6 | x6 | x6 | x6 | x6 | x6 | x6 | x6 | %115
 x6 | x6 | x6 | x6 | G,,4 x :|[K:G][M:3/4] G,,2 G,,4 | x2 G,,2 x2 | x6 | x2 D,,2 x2 | x6 | x6 | %126
 x6 | x6 :: D,,2 D,,3 x | G,,/ x3/2 A,,3/2 x5/2 | x6 | x6 | B,,3/2 x/ C,,3/2 x5/2 | %133
 x2 A,,3/2 x5/2 | z/ B,,/C,/A,,/ B,,/ x7/2 | x6 :|[K:G][M:3/4] x6 | x6 | x6 | G,,4 D,2 | x6 | x6 | %142
 x6 | x6 :: x6 | x6 | x6 | x6 | x6 | x6 | x6 | x6 | x6 | x6 | x6 | x6 | x6 | x6 | x6 | G,,6 :: %160
[K:F][M:3/4] x6 | x6 | x6 | x6 | x6 | x6 | x6 | x6 :: x6 | x6 | x6 | x6 | x6 | x6 | x6 | x6 | x6 | %177
 x6 | x6 | x6 | x6 | x6 | x6 | x6 :|[K:G][M:6/8] x | x6 | x6 | x6 | G,,3 D,2 x | x6 | x6 | x6 | %192
 x6 | x6 | x6 | x6 | x5 :: x | x6 | x6 | x6 | x6 | x6 | x6 | x6 | x6 | x6 | x6 | x6 | x6 | x6 | %211
 x6 | x6 | x6 | x6 | x6 | x6 | x6 | x6 | x5 :| %220
V:3
 x8 | x8 | x8 | x8 | x8 | x8 | x8 | x8 | x8 | x8 | x8 | x8 | x8 | x8 | x8 | x8 | x8 | x8 | x8 | %19
 x8 | x8 | x8 | x8 | x8 | x8 | x8 | x8 | x8 | x8 | x8 | x8 | x8 | x8 | x8 | x8 | x8 | x8 | x8 | %38
 x8 | x8 | x8 | x8 |][K:G][M:4/4] x/ | D,2 x6 | x8 | x8 | x8 | x8 | x8 | x8 | x8 | x8 | x8 | x8 | %54
 x8 | x8 | x8 | D,3/2 x13/2 | x15/2 :: x/ | x8 | x8 | x8 | x8 | x8 | E,3/2 x13/2 | x8 | %67
 E,3/2 x13/2 | x8 | x8 | x8 | x8 | x4 D,3/2 x5/2 | x8 | x8 | x15/2 :|[K:G][M:3/4] x | x6 | x6 | %79
 x6 | x6 | x6 | x6 | x6 | x6 | x6 | x6 | x6 | x6 | x6 | x6 | x6 | x6 | x6 | x5 :: x | x6 | x6 | %98
 x6 | x6 | x6 | x6 | x6 | x6 | x6 | x6 | x6 | x6 | x6 | x6 | x6 | x6 | x6 | x6 | x6 | x6 | x6 | %117
 x6 | x6 | x5 :|[K:G][M:3/4] D,2 E,4 | x2 D,2 x2 | x6 | x2 A,,2 x2 | x6 | x6 | x6 | x6 :: %128
 A,,2 A,,3 x | D,/ x11/2 | x6 | x6 | x2 G,,3/2 x5/2 | x2 E,3/2 x5/2 | x6 | x6 :|[K:G][M:3/4] x6 | %137
 x6 | x6 | D,4 x2 | x6 | x6 | x6 | x6 :: x6 | x6 | x6 | x6 | x6 | x6 | x6 | x6 | x6 | x6 | x6 | %155
 x6 | x6 | x6 | x6 | x6 ::[K:F][M:3/4] x6 | x6 | x6 | x6 | x6 | x6 | x6 | x6 :: x6 | x6 | x6 | x6 | %172
 x6 | x6 | x6 | x6 | x6 | x6 | x6 | x6 | x6 | x6 | x6 | x6 :|[K:G][M:6/8] x | x6 | x6 | x6 | %188
 D,3 x3 | x6 | x6 | x6 | x6 | x6 | x6 | x6 | x5 :: x | x6 | x6 | x6 | x6 | x6 | x6 | x6 | x6 | x6 | %207
 x6 | x6 | x6 | x6 | x6 | x6 | x6 | x6 | x6 | x6 | x6 | x6 | x5 :| %220
V:4
 x8 | x8 | x8 | x8 | x8 | x8 | x8 | x8 | x8 | x8 | x8 | x8 | x8 | x8 | x8 | x8 | x8 | x8 | x8 | %19
 x8 | x8 | x8 | x8 | x8 | x8 | x8 | x8 | x8 | x8 | x8 | x8 | x8 | x8 | x8 | x8 | x8 | x8 | x8 | %38
 x8 | x8 | x8 | x8 |][K:G][M:4/4] x/ | x8 | x8 | x8 | x8 | x8 | x8 | x8 | x8 | x8 | x8 | x8 | x8 | %55
 x8 | x8 | x8 | x15/2 :: x/ | x8 | x8 | x8 | x8 | x8 | x8 | x8 | x8 | x8 | x8 | x8 | x8 | x8 | x8 | %74
 x8 | x15/2 :|[K:G][M:3/4] x | x6 | x6 | x6 | x6 | x6 | x6 | x6 | x6 | x6 | x6 | x6 | x6 | x6 | %90
 x6 | x6 | x6 | x6 | x5 :: x | x6 | x6 | x6 | x6 | x6 | x6 | x6 | x6 | x6 | x6 | x6 | x6 | x6 | %109
 x6 | x6 | x6 | x6 | x6 | x6 | x6 | x6 | x6 | x6 | x5 :|[K:G][M:3/4] x6 | x6 | x6 | x6 | x6 | x6 | %126
 x6 | x6 :: x2 F,3 x | x6 | x6 | x6 | x6 | x6 | x6 | x6 :|[K:G][M:3/4] x6 | x6 | x6 | x6 | x6 | %141
 x6 | x6 | x6 :: x6 | x6 | x6 | x6 | x6 | x6 | x6 | x6 | x6 | x6 | x6 | x6 | x6 | x6 | x6 | x6 :: %160
[K:F][M:3/4] x6 | x6 | x6 | x6 | x6 | x6 | x6 | x6 :: x6 | x6 | x6 | x6 | x6 | x6 | x6 | x6 | x6 | %177
 x6 | x6 | x6 | x6 | x6 | x6 | x6 :|[K:G][M:6/8] x | x6 | x6 | x6 | x6 | x6 | x6 | x6 | x6 | x6 | %194
 x6 | x6 | x5 :: x | x6 | x6 | x6 | x6 | x6 | x6 | x6 | x6 | x6 | x6 | x6 | x6 | x6 | x6 | x6 | %213
 x6 | x6 | x6 | x6 | x6 | x6 | x5 :| %220

